public/assets/img/custody2.svg

<svg width="48" height="48" viewBox="0 0 48 48" fill="none" xmlns="http://www.w3.org/2000/svg">
<path fill-rule="evenodd" clip-rule="evenodd" d="M23.9922 40.0781C24.2891 40.0781 24.7266 39.9531 25.1328 39.7344C34.2109 34.9219 37.3828 32.5469 37.3828 26.8594V15.1875C37.3828 13.125 36.6484 12.3281 34.8828 11.5781C33.2422 10.8906 27.5078 8.92188 25.9297 8.40625C25.3359 8.20312 24.6016 8.07812 23.9922 8.07812C23.3828 8.07812 22.6641 8.23438 22.0547 8.40625C20.4766 8.84375 14.7422 10.9062 13.1016 11.5781C11.3359 12.3281 10.6016 13.125 10.6016 15.1875V26.8594C10.6016 32.5469 13.7891 34.9062 22.8516 39.7344C23.2578 39.9531 23.6953 40.0781 23.9922 40.0781ZM23.9922 36.375C23.7891 36.375 23.6016 36.3125 23.1641 36.0312C22.8258 35.8244 22.4989 35.625 22.183 35.4323C15.8877 31.5926 13.9609 30.4174 13.9609 26.2812V15.6875C13.9609 15.1094 14.0859 14.875 14.5234 14.7031C15.8253 14.1787 17.8439 13.4713 19.6681 12.8319L19.6682 12.8319C20.9966 12.3663 22.2219 11.9369 22.9922 11.6406C23.4453 11.4844 23.7266 11.4219 23.9922 11.4219C24.2734 11.4219 24.5547 11.4844 25.0078 11.6406C26.1562 12.0861 28.3333 12.8641 30.3508 13.585L30.3509 13.585C31.5176 14.0019 32.6308 14.3997 33.4609 14.7031C33.9141 14.8594 34.0391 15.1094 34.0391 15.6875V26.2812C34.0391 30.5222 31.9113 31.7959 25.5938 35.5773L25.5929 35.5779C25.347 35.7251 25.0947 35.8761 24.8359 36.0312C24.3984 36.2969 24.1953 36.375 23.9922 36.375ZM23.8203 29.7812C23.4766 30.3125 22.9453 30.625 22.3516 30.625C21.7266 30.625 21.2422 30.3438 20.7891 29.7969L17.2109 25.4688C16.9141 25.0938 16.7578 24.7344 16.7578 24.3281C16.7578 23.4844 17.4297 22.8281 18.2734 22.8281C18.7734 22.8281 19.1641 23 19.5391 23.4844L22.3047 26.9219L28.3047 17.3594C28.6641 16.7812 29.1172 16.4844 29.6484 16.4844C30.4609 16.4844 31.2109 17.0781 31.2109 17.9219C31.2109 18.2812 31.0391 18.6719 30.8047 19.0156L23.8203 29.7812Z" fill="white"/>
</svg>

<svg width="48" height="48" fill="none" xmlns="http://www.w3.org/2000/svg"><path fill-rule="evenodd" clip-rule="evenodd" d="M23.992 40.078c.297 0 .735-.125 1.14-.344 9.079-4.812 12.25-7.187 12.25-12.875V15.187c0-2.062-.734-2.859-2.5-3.609-1.64-.687-7.374-2.656-8.952-3.172a6.382 6.382 0 0 0-1.938-.328c-.61 0-1.328.156-1.937.328-1.578.438-7.313 2.5-8.953 3.172-1.766.75-2.5 1.547-2.5 3.61v11.671c0 5.688 3.187 8.047 12.25 12.875.406.22.843.344 1.14.344Zm0-3.703c-.203 0-.39-.063-.828-.344l-.981-.599c-6.295-3.84-8.222-5.015-8.222-9.15V15.686c0-.578.125-.812.562-.984 1.302-.524 3.32-1.232 5.145-1.871 1.329-.466 2.554-.895 3.324-1.191.453-.157.735-.22 1-.22.281 0 .563.063 1.016.22 1.148.445 3.325 1.223 5.343 1.944 1.167.417 2.28.815 3.11 1.118.453.156.578.406.578.985V26.28c0 4.241-2.128 5.515-8.445 9.296h-.001c-.246.148-.498.3-.757.454-.438.266-.64.344-.844.344Zm-.172-6.594c-.343.532-.875.844-1.468.844-.625 0-1.11-.281-1.563-.828l-3.578-4.328c-.297-.375-.453-.735-.453-1.14 0-.845.672-1.5 1.515-1.5.5 0 .891.171 1.266.655l2.766 3.438 6-9.563c.36-.578.812-.875 1.343-.875.813 0 1.563.594 1.563 1.438 0 .36-.172.75-.406 1.094L23.82 29.78Z" fill="#fff"/></svg>
